X: 1
T: Matthew's Hornpipe  v.1
P: piffero primo a0035
O: Rutherford
%R: hornpipe, reel
F: http://ancients.sudburymuster.org/mus/ssp/pdf/matthewsF.pdf
Z: 2019 John Chambers <jc:trillian.mit.edu>
M: 2/4
L: 1/16
K: D
z2 |\
d2f2 ecA2 | B2gB A4 | G2eG F2dF | Ecdf ecA2 |\
d2f2 ecA2 | B2gB TA4 | G2eG F2dF | E2c2 d2 :|
|: z2 |\
dfed gedc | BdcB ^A2F2 | BdcB egfTe | d2c2 B4 |\
(^dfa2) (geB2) | bagf g(e^de) | (ceg2) (fdA2) |
agfe f(dcd) ||\
d2f2 ecA2 | B2gB TA4 | G2eG F2dF | Ecdf ecA2 |\
d2f2 ecA2 | B2gB TA4 | G2eG F2dF | E2c2 d2 :|
